svgs/google_chrome_canary.svg

<svg width="192" height="192" viewBox="0 0 192 192" fill="none" xmlns="http://www.w3.org/2000/svg"><path d="M106 122c0-8.837 7.163-16 16-16h32c8.837 0 16 7.163 16 16v32c0 8.837-7.163 16-16 16h-32c-8.837 0-16-7.163-16-16v-32Z" stroke="#000" stroke-width="12"/><path d="M149.607 148.607a15.01 15.01 0 0 1-7.681 4.105 15 15 0 1 1 7.681-25.319" stroke="#000" stroke-width="8" stroke-linecap="round"/><path fill-rule="evenodd" clip-rule="evenodd" d="M96 28c-20.432 0-38.76 9.011-51.224 23.276L63.98 84.54C68.683 71.4 81.244 62 96 62h58.903C143.145 41.675 121.17 28 96 28ZM28 96c0-12.39 3.314-24.007 9.104-34.011l29.122 50.44c4.868 8.803 13.526 15.219 23.774 17.043V120c0-.942.043-1.873.128-2.792a22.051 22.051 0 0 1-13.184-10.206l.004-.002-.215-.372A21.899 21.899 0 0 1 74 96c0-12.15 9.85-22 22-22 10.117 0 18.639 6.829 21.208 16.128.919-.085 1.85-.128 2.792-.128h9.472a33.867 33.867 0 0 0-7.548-16h38.438a67.676 67.676 0 0 1 3.459 17.03 29.938 29.938 0 0 1 12.163 6.594c.011-.54.016-1.081.016-1.624 0-44.183-35.817-80-80-80S16 51.817 16 96s35.817 80 80 80c.543 0 1.084-.005 1.624-.016a29.938 29.938 0 0 1-6.594-12.163C55.795 161.276 28 131.884 28 96Z" fill="#000"/></svg>

<?xml version="1.0" encoding="UTF-8" standalone="no"?><svg xmlns:android="http://schemas.android.com/apk/res/android" height="192" width="192" xmlns="http://www.w3.org/2000/svg">
  <path d="M106,122C106,113.163 113.163,106 122,106H154C162.837,106 170,113.163 170,122V154C170,162.837 162.837,170 154,170H122C113.163,170 106,162.837 106,154V122Z" fill="#000000" fill-opacity="0.0" stroke="#000000" stroke-width="12"/>
  <path d="M149.607,148.607C147.509,150.704 144.836,152.133 141.926,152.712C139.017,153.291 136.001,152.994 133.26,151.858C130.519,150.723 128.176,148.8 126.528,146.334C124.88,143.867 124,140.967 124,138C124,135.033 124.88,132.133 126.528,129.666C128.176,127.2 130.519,125.277 133.26,124.142C136.001,123.006 139.017,122.709 141.926,123.288C144.836,123.867 147.509,125.296 149.607,127.393" fill="#000000" fill-opacity="0.0" stroke="#000000" stroke-linecap="round" stroke-width="8"/>
  <path d="M96,28C75.568,28 57.241,37.011 44.776,51.277L63.98,84.539C68.683,71.4 81.244,62 96,62H154.903C143.145,41.675 121.17,28 96,28ZM28,96C28,83.609 31.314,71.993 37.104,61.989L66.226,112.429C71.094,121.232 79.753,127.648 90,129.472V120C90,119.058 90.043,118.127 90.128,117.208C84.513,115.656 79.798,111.935 76.944,107.002L76.948,107L76.733,106.628C74.991,103.478 74,99.855 74,96C74,83.85 83.85,74 96,74C106.117,74 114.639,80.829 117.208,90.128C118.127,90.043 119.058,90 120,90H129.472C128.398,83.966 125.732,78.483 121.924,74H160.362C162.208,79.402 163.394,85.111 163.821,91.03C168.402,92.263 172.548,94.554 175.984,97.624C175.995,97.084 176,96.543 176,96C176,51.817 140.183,16 96,16C51.817,16 16,51.817 16,96C16,140.183 51.817,176 96,176C96.543,176 97.084,175.995 97.624,175.984C94.554,172.548 92.263,168.402 91.03,163.821C55.795,161.276 28,131.884 28,96Z" fill="#000000" fill-rule="evenOdd"/>
</svg>
